src/assets/duotone/Brush.svg

<svg width="20" height="20" viewBox="0 0 20 20"  xmlns="http://www.w3.org/2000/svg">
<path opacity="0.4" d="M14.19 0H5.81C2.17 0 0 2.17 0 5.81V14.18C0 17.83 2.17 20 5.81 20H14.18C17.82 20 19.99 17.83 19.99 14.19V5.81C20 2.17 17.83 0 14.19 0Z" />
<path d="M19.8298 1.55022C18.7798 4.16022 16.3998 7.57022 14.1198 9.80022C13.7898 7.74022 12.1498 6.13022 10.0698 5.84022C12.3098 3.56022 15.7398 1.14022 18.3598 0.0802204C18.8198 -0.0997796 19.2898 0.0402204 19.5698 0.33022C19.8798 0.63022 20.0198 1.09022 19.8298 1.55022Z" />
<path opacity="0.4" d="M14.1202 9.79008C13.7202 10.1801 13.3202 10.5401 12.9402 10.8401L11.3702 12.1001C11.1702 12.2401 10.9702 12.3601 10.7502 12.4601C10.7502 12.3101 10.7302 12.1601 10.7202 12.0001C10.6302 11.3401 10.3302 10.7101 9.79018 10.1701C9.24018 9.63008 8.58018 9.32008 7.91018 9.23008C7.75018 9.21008 7.58018 9.21008 7.43018 9.21008C7.52018 8.96008 7.65018 8.73008 7.82018 8.54008L9.07018 6.97008C9.37018 6.59008 9.71018 6.21008 10.0802 5.83008C12.1502 6.12008 13.8002 7.74008 14.1202 9.79008Z" />
<path d="M10.7501 12.47C10.7501 13.35 10.4101 14.19 9.78007 14.82C9.29007 15.31 8.64007 15.65 7.84007 15.75L5.88007 15.97C4.81007 16.09 3.89007 15.17 4.01007 14.09L4.23007 12.13C4.42007 10.38 5.88007 9.26 7.43007 9.23C7.58007 9.22 7.75007 9.23 7.91007 9.25C8.59007 9.34 9.24007 9.65 9.79007 10.19C10.3201 10.72 10.6301 11.36 10.7201 12.02C10.7301 12.17 10.7501 12.32 10.7501 12.47Z" />
</svg>

<?xml version="1.0" encoding="UTF-8"?>
<svg width="20" height="20" viewBox="0 0 20 20" xmlns="http://www.w3.org/2000/svg">
 <path d="M14.19 0H5.81C2.17 0 0 2.17 0 5.81V14.18C0 17.83 2.17 20 5.81 20H14.18C17.82 20 19.99 17.83 19.99 14.19V5.81C20 2.17 17.83 0 14.19 0Z" opacity=".4"/>
 <path d="m19.83 1.5502c-1.05 2.61-3.43 6.02-5.71 8.25-0.33-2.06-1.97-3.67-4.05-3.96 2.24-2.28 5.67-4.7 8.29-5.76 0.46-0.18 0.93-0.04 1.21 0.25 0.31 0.3 0.45 0.76 0.26 1.22z"/>
 <path d="m14.12 9.7901c-0.4 0.39002-0.8 0.75002-1.18 1.05l-1.57 1.26c-0.2 0.14-0.4 0.26-0.62 0.36 0-0.15-0.02-0.3-0.03-0.46-0.09-0.66-0.39-1.29-0.93002-1.83-0.55-0.54002-1.21-0.85002-1.88-0.94002-0.16-0.02-0.33-0.02-0.48-0.02 0.09-0.25 0.22-0.48 0.39-0.67l1.25-1.57c0.3-0.38 0.64-0.76 1.01-1.14 2.07 0.29 3.72 1.91 4.04 3.96z" opacity=".4"/>
 <path d="m10.75 12.47c0 0.88-0.34 1.72-0.97003 2.35-0.49 0.49-1.14 0.83-1.94 0.93l-1.96 0.22c-1.07 0.12-1.99-0.8-1.87-1.88l0.22-1.96c0.19-1.75 1.65-2.87 3.2-2.9 0.15-0.01 0.32 0 0.48 0.02 0.68 0.09 1.33 0.4 1.88 0.94 0.53003 0.53 0.84003 1.17 0.93003 1.83 0.01 0.15 0.03 0.3 0.03 0.45z"/>
</svg>
